X: 17
T:Anderson's
M:6/8
L:1/8
Q:1/4=120
K:C % 0 sharps
B||:c2 e dcB|cGE CEG|AGF GFE|DEF GAB|cde dcB|!
cGE CEG|A<fe d<gB|1c3 c2 B:||2c3 c2 e/f/||:gec afc|gec cde|!
fed edc|dBG GAB|cde dcB|cBE CEG|A<fe d<gB|1c3 cef:||2c3 c2||
% <A name="D1X018"></A>

